X: 86
T: Song Preceding Treatment of Fractures
C: Teton Sioux band 1911-1914
N: Derived from sioux086.krn
O: South Dakota, U.S.A.
N: Teton Sioux Music by Frances Densmore, 1918
Z: transcribed to **kern format by Craig Sapp
L: 1/8
M: 3/4
Q: 1/4=58
K: B clef=bass
%%linebreak <none>
D D D D D D [I:setbarnb 2]| 
D4-D B, ||  
[M:2/4]D> D D D | 
(D< B,)B,2 ]|:  
D D D D | 
(D< B,)-B,2- | 
B,4 ||  
[M:3/4]C< B, C< =A, F,/ E,3/ | 
E,6 ||  
[M:2/4]E,< F, E,/ D,3/ ||  
[M:3/4]D,4-D,3/ B,,/ ||  
[M:2/4]D,> D, D, D, | 
(D,< B,,)-B,,2 | 
B,,4 :|]  



